X: 456
T: Pao yangyu
L: 1/16
M: 3/4
K: C
z2 A2 e2 d c [I:setbarnb 1]| 
d2A6 | 
c2 B A G2 E GA4 | 
[M:2/4]z2 A2 e2 d c | 
d2E6 | 
[M:3/4]G G G A E D C2D4 | 
[M:2/4]z2 A2 e2 d c | 
d2A6 | 
[M:3/4]c2 B A G2 E GA4 | 
[M:2/4]z2 A2 e d c A | 
c2E6 | 
G G G A E D C2 | 
D8 |]

@@@ Tune index: 9330
